content/pages/web/logos/webpack.svg

<svg clip-rule="evenodd" fill-rule="evenodd" stroke-linejoin="round" stroke-miterlimit="1.41421" viewBox="0 0 2162 2500" xmlns="http://www.w3.org/2000/svg" xmlns:xlink="http://www.w3.org/1999/xlink"><radialGradient id="a" cx="0" cy="0" gradientTransform="matrix(2157.52 0 0 2161.72 1081.27 1251.93)" gradientUnits="userSpaceOnUse" r="1"><stop offset="0" stop-color="#93b4e7"/><stop offset=".59" stop-color="#b9d1f8"/><stop offset="1" stop-color="#9cb6e0"/></radialGradient><g fill-rule="nonzero"><path d="m1081.27 3.859-1078.75 624.031v1248.07l1078.75 624.04 1078.76-624.04v-1248.07l-1078.76-624.031z" fill="url(#a)"/><path d="m1081.29 636.859-534.96 309.456v618.929l534.96 309.464 534.96-309.464v-618.929z" fill="#6f95db"/><path d="m1081 0-1081 628.287 1081 589.727 1081-585.876-1081-632.138zm0 1298.96-1081 574.31 1081 624.42 1077.15-628.279-1077.15-570.443z" fill="#fff" fill-opacity=".098039"/></g></svg>

<svg clip-rule="evenodd" fill-rule="evenodd" stroke-linejoin="round" stroke-miterlimit="1.414" viewBox="0 0 2162 2500" xmlns="http://www.w3.org/2000/svg"><radialGradient id="a" cx="0" cy="0" gradientTransform="matrix(2157.52 0 0 2161.72 1081.27 1251.93)" gradientUnits="userSpaceOnUse" r="1"><stop offset="0" stop-color="#93b4e7"/><stop offset=".59" stop-color="#b9d1f8"/><stop offset="1" stop-color="#9cb6e0"/></radialGradient><g fill-rule="nonzero"><path d="M1081.27 3.859L2.52 627.89v1248.07L1081.27 2500l1078.76-624.04V627.89L1081.27 3.859z" fill="url(#a)"/><path d="M1081.29 636.859L546.33 946.315v618.929l534.96 309.464 534.96-309.464V946.315z" fill="#6f95db"/><path d="M1081 0L0 628.287l1081 589.727 1081-585.876L1081 0zm0 1298.96L0 1873.27l1081 624.42 1077.15-628.279L1081 1298.968z" fill="#fff" fill-opacity=".098"/></g></svg>
